storage/app/icons/phosphoricons/light/chat-dots-light.svg

<svg xmlns="http://www.w3.org/2000/svg" viewBox="0 0 256 256" fill="currentColor"><path d="M138,128a10,10,0,1,1-10-10A10,10,0,0,1,138,128ZM84,118a10,10,0,1,0,10,10A10,10,0,0,0,84,118Zm88,0a10,10,0,1,0,10,10A10,10,0,0,0,172,118Zm58-54V192a14,14,0,0,1-14,14H82.23L49.07,234.64l-.06.05A13.87,13.87,0,0,1,40,238a14.11,14.11,0,0,1-5.95-1.33A13.88,13.88,0,0,1,26,224V64A14,14,0,0,1,40,50H216A14,14,0,0,1,230,64Zm-12,0a2,2,0,0,0-2-2H40a2,2,0,0,0-2,2V224a2,2,0,0,0,3.26,1.55l34.82-30.08A6,6,0,0,1,80,194H216a2,2,0,0,0,2-2Z"/></svg>

<svg xmlns="http://www.w3.org/2000/svg" fill="currentColor" viewBox="0 0 256 256"><path d="M138 128a10 10 0 1 1-10-10 10 10 0 0 1 10 10m-54-10a10 10 0 1 0 10 10 10 10 0 0 0-10-10m88 0a10 10 0 1 0 10 10 10 10 0 0 0-10-10m58-54v128a14 14 0 0 1-14 14H82.23l-33.16 28.64-.06.05A13.87 13.87 0 0 1 40 238a14.1 14.1 0 0 1-5.95-1.33A13.88 13.88 0 0 1 26 224V64a14 14 0 0 1 14-14h176a14 14 0 0 1 14 14m-12 0a2 2 0 0 0-2-2H40a2 2 0 0 0-2 2v160a2 2 0 0 0 3.26 1.55l34.82-30.08A6 6 0 0 1 80 194h136a2 2 0 0 0 2-2Z"/></svg>
